X:37
T:Douce dame jolie
R:Virelai
C:Guillaume de Machaut (+1377)
C:arr. Steven Hendricks
M:C|
L:1/4
K:Bb
V:1
g | gcBc | e/dc/dd | cgg/fe/ | e/dc/dg |
ccBc | e/dc/df | e>dcB | c2za | c'c'ba |
g2g/fe/ | g2a/g/f/e/ | dcef | g2za | c'c'ba |
g2g/fe/ | g2 a/g/f/e/ | dcd/cB/ | c3 :|
V:2
B | cGGG | G2BB | GcB>B | c/BG/BB |
GGGG | c/BG/BB | c>GGG | G2zc | eedc |
e2d>c | e2c>c | BBGG | B2zc | eedc |
e2d>c | e2c>c | GGG>G | G3 :|
V:3
d | e2de | e/de/dd | eee/de/ | g2dd |
e2de | g2dd | c2ed | e2za | gggf |
g2B2 | c2f>g | g2e2 | d2za | gggf |
g2B>c | c2f>g | ggd/ed/ | e3 :|
V:4 clef=treble-8
G | c2dc | c/Bc/G2 | c2G2 | c/Bc/G2 |
c2dc | c/Bc/G2 | c2cG | c2zF | c2GF |
c2G2 | c2F2 | G2c2 | G2zF | c2gA|
c2G2 | c2F2 | BcG2 | c3 :|
V:5
G, | C2DC | C/B,C/G,2 | C2G,2 | C/B,C/G,2 |
C2DC | C/B,C/G,2 | C2CG, | C2zF, | C2G,F, |
C2G,2 | C2F,2 | G,2C2 | G,2zF, | C2GA, |
C2G,2 | C2F,2 | B,CG,2 | C3 :|





